X: 74
M:2/4
L:1/16
K:Ador
vAB|\
v[A2c2]B2 [A/c/]A3/2zuc | B2^G2 "4"A<EzuB | [A2c2]B2 [A/c/]A3/2zuA |\
 G,<G,zuC A2>B2 |
v[A2c2]B2 [A/c/]A3/2zuc | B2^G2 A<EzB | [A2c2]B2 [Ac]<a3 |\
 {C}BA^G2 "4"A2 :|
|:u"0"A2|\
vA4 u{ABcd}v"4"eezuc | BA^GB A<EzuE | c4 {cdef}=ggzuc |\
 BA^G2 A2zuA |
 {c}BA^G2 "4"A2 "_D.C.":|


